src/svgs/parliament-2.svg

<svg xmlns="http://www.w3.org/2000/svg" viewBox="0 0 24 24" width="512" height="512" aria-labelledby="hnparliament-2-desc hnparliament-2-title"><title id="hnparliament-2-title">Parliament Icon</title><desc id="hnparliament-2-desc">A picture depicting a parliament building.</desc><path d="M21 9V8h2V6h-6V5h-4.5V3h-.128v-.246l.056-.009a2.454 2.454 0 001.818-1.49 3.317 3.317 0 00-1.855.727l-.019.007v-.607a.382.382 0 10-.763 0v.6a3.317 3.317 0 00-1.855-.727 2.454 2.454 0 001.818 1.49l.037.006V3H11.5v2H7v1H1v2h2v1h1v11H3v1H1v2h22v-2h-2v-1h-1V9zM7 20H5V9h2zm3 0H8V9h2zm3 0h-2V9h2zm3 0h-2V9h2zm3 0h-2V9h2z"/></svg>

<svg xmlns="http://www.w3.org/2000/svg" viewBox="0 0 24 24"><path d="M21,9V8h2V6H17V5H12.5V3h-.128V2.754l.056-.009a2.454,2.454,0,0,0,1.818-1.49,3.317,3.317,0,0,0-1.855.727l-.019.007V1.382a.382.382,0,1,0-.763,0v.6a3.317,3.317,0,0,0-1.855-.727,2.454,2.454,0,0,0,1.818,1.49l.037.006V3H11.5V5H7V6H1V8H3V9H4V20H3v1H1v2H23V21H21V20H20V9ZM7,20H5V9H7Zm3,0H8V9h2Zm3,0H11V9h2Zm3,0H14V9h2Zm3,0H17V9h2Z"/></svg>
